src/svg/events.svg

<svg fill="none" height="226" viewBox="0 0 192 226" width="192" xmlns="http://www.w3.org/2000/svg" xmlns:xlink="http://www.w3.org/1999/xlink"><linearGradient id="a" gradientUnits="userSpaceOnUse" x1="108.694" x2="134.107" y1="14.7603" y2="102.087"><stop offset="0" stop-color="#5e6294"/><stop offset="1" stop-color="#878bb2"/></linearGradient><linearGradient id="b" gradientUnits="userSpaceOnUse" x1="-32084" x2="41904.5" y1="21347.9" y2="21347.9"><stop offset="0" stop-color="#d6e6fd"/><stop offset="1" stop-color="#d2e3fd"/></linearGradient><linearGradient id="c" gradientUnits="userSpaceOnUse" x1="-25204.1" x2="40569.5" y1="2524.3" y2="2524.3"><stop offset="0" stop-color="#373282"/><stop offset="1" stop-color="#2e419b"/></linearGradient><linearGradient id="d" gradientUnits="userSpaceOnUse" x1="161.013" x2="126.898" y1="188.139" y2="215.46"><stop offset="0" stop-color="#ef7b4d"/><stop offset="1" stop-color="#ff8f62"/></linearGradient><linearGradient id="e" gradientUnits="userSpaceOnUse" x1="39.1074" x2="39.1074" y1="226.441" y2="170.409"><stop offset="0" stop-color="#5c75c9"/><stop offset="1" stop-color="#d2e3fd"/></linearGradient><linearGradient id="f"><stop offset="0" stop-color="#5c75c9"/><stop offset="1" stop-color="#2e419b"/></linearGradient><linearGradient id="g" gradientUnits="userSpaceOnUse" x1="28.3561" x2="28.3561" xlink:href="#f" y1="122.239" y2="284.042"/><linearGradient id="h" gradientUnits="userSpaceOnUse" x1="7062.64" x2="7062.64" xlink:href="#f" y1="8769.82" y2="17613.6"/><linearGradient id="i" gradientUnits="userSpaceOnUse" x1="163.193" x2="163.193" y1="229.579" y2="149.473"><stop offset="0" stop-color="#373282" stop-opacity="0"/><stop offset="1" stop-color="#2e419b"/></linearGradient><circle cx="108.694" cy="59.0241" fill="url(#a)" opacity=".2" r="44.2639"/><path clip-rule="evenodd" d="m108.694 114.282c30.518 0 55.258-24.74 55.258-55.2579s-24.74-55.2575-55.258-55.2575c-30.5176 0-55.2572 24.7396-55.2572 55.2575s24.7396 55.2579 55.2572 55.2579zm0-10.994c24.447 0 44.264-19.8176 44.264-44.2639s-19.817-44.2639-44.264-44.2639c-24.446 0-44.2636 19.8176-44.2636 44.2639s19.8176 44.2639 44.2636 44.2639z" fill="#5e6294" fill-rule="evenodd" opacity=".14"/><path d="m83.4005 82.2164c-6.0549-2.6227-10.2909-8.6518-10.2909-15.6703 0-6.5625 3.7034-12.26 9.1344-15.1166-.3766-15.0031 11.687-27.4114 26.74-27.4114 15.052 0 27.116 12.4083 26.739 27.4114 5.431 2.8566 9.135 8.5541 9.135 15.1166 0 7.0185-4.236 13.0476-10.291 15.6703l-.989 26.2596c.283 6.797 2.333 7.361 10.043 9.481.744.205 1.541.424 2.394.664-6.351 1.452-10.341 1.652-12.852.894l-.456 12.125c-1.019 11.461-.917 11.487 6.819 13.5 1.052.274 2.245.584 3.595.965-16.656 3.808-16.873-3.737-17.069-10.559-.039-1.363-.078-2.697-.246-3.906h-.621c-.037.459-.073.905-.109 1.338v.011c-.777 9.541-1.044 12.816.454 14.26.783.755 2.047 1.01 3.973 1.398 2.013.405 4.749.956 8.411 2.377-19.64 2.734-19.625-3.504-19.6-14.126.004-1.652.008-3.411-.061-5.258h-.59c-.91 20.475.148 20.735 7.112 22.443 1.893.464 4.221 1.036 7.064 2.148-20.015 2.224-20.816-3.464-22.05-12.226-.218-1.552-.45-3.2-.805-4.919-.355 1.719-.587 3.367-.806 4.919-1.234 8.762-2.035 14.45-22.0496 12.226 2.8431-1.112 5.1712-1.684 7.0633-2.148 6.9653-1.708 8.0223-1.968 7.1123-22.443h-.5897c-.0694 1.847-.0652 3.606-.0612 5.258.0255 10.622.0405 16.86-19.6001 14.126 3.6626-1.421 6.3983-1.972 8.4115-2.377 1.9254-.388 3.1901-.643 3.9729-1.398 1.498-1.444 1.2313-4.719.4543-14.26-.0356-.436-.0722-.886-.1097-1.349h-.6209c-.1684 1.209-.2067 2.543-.2459 3.906-.1961 6.822-.413 14.367-17.0692 10.559 1.3504-.381 2.5434-.691 3.5952-.965 7.7357-2.013 7.838-2.039 6.8193-13.5l-.4563-12.125c-2.5112.758-6.5006.558-12.8518-.894.8529-.24 1.6496-.459 2.3936-.664 7.7104-2.12 9.7598-2.684 10.0427-9.481z" fill="#ef7b4d"/><circle cx="89.3107" cy="66.8354" fill="#fefefe" r="12.7295"/><circle cx="89.0214" cy="64.8098" fill="#000" r="4.33959"/><circle cx="126.921" cy="66.8354" fill="#fefefe" r="12.7295"/><circle cx="126.631" cy="64.8098" fill="#000" r="4.33959"/><path d="m99.1472 90.5581s4.6288 4.6289 9.8368 4.6289c5.207 0 9.836-4.6289 9.836-4.6289v5.7861c0 5.4328-4.404 9.8368-9.836 9.8368-5.433 0-9.8368-4.404-9.8368-9.8368z" fill="#fafafa"/><path d="m99.1472 95.1875s4.6288 4.6289 9.8368 4.6289c5.207 0 9.836-4.6289 9.836-4.6289v1.1572c0 5.4323-4.404 9.8363-9.836 9.8363-5.433 0-9.8368-4.404-9.8368-9.8363z" fill="#202124"/><path d="m71.942 86.7018c-5.7539-7.6445-9.1807-17.1429-9.2231-27.4464-.0684-16.6048 8.6699-31.191 21.8254-39.3328" opacity=".16" stroke="#5e6294" stroke-linecap="round" stroke-width="3.47168"/><g fill="#5e6294"><circle cx="90.468" cy="15.9175" opacity=".45" r="2.31445"/><rect height="26.6162" rx="2.31445" width="5.20751" x="48.2292" y="46.0054"/><rect height="26.6162" rx="2.31445" width="5.20751" x="163.952" y="46.0054"/><path clip-rule="evenodd" d="m108.694 117.175c32.116 0 58.151-26.0352 58.151-58.1509s-26.035-58.150565-58.151-58.150565c-32.1154 0-58.1503 26.034865-58.1503 58.150565s26.0349 58.1509 58.1503 58.1509zm0-2.893c30.518 0 55.258-24.74 55.258-55.2578 0-30.5179-24.74-55.25755-55.258-55.25755-30.5176 0-55.2573 24.73965-55.2573 55.25755 0 30.5178 24.7397 55.2578 55.2573 55.2578z" fill-opacity=".2" fill-rule="evenodd"/></g><path d="m102.877 37.0899c-.581 2.7214-2.9445 4.5232-5.2782 4.0246-2.3337-.4987-3.8299-2.6772-3.2484-5.3986s4.1381-5.6124 6.4716-5.1138c2.334.4987 2.637 3.7664 2.055 6.4878z" fill="#f77f4f"/><path d="m191.181 224.844h-45.743l8.828-105.927h21.653z" fill="#5c75c9"/><path d="m175.718 118.916-7.25 71.998-.245 2.435-.669 6.662-1.054 10.476c-.397 3.935-2.238 7.582-5.167 10.234-2.929 2.653-6.738 4.122-10.687 4.123h-126.8461l9.201-91.582c.3967-3.935 2.2388-7.583 5.1691-10.236s6.74-4.121 10.6902-4.121z" fill="url(#b)"/><path d="m48.8549 118.917h126.8631l-1.969 19.544h-141.2664l.5242-5.21c.3992-3.931 2.2413-7.573 5.1692-10.221 2.928-2.649 6.7334-4.114 10.6789-4.113z" fill="url(#c)"/><path d="m168.24 193.349-.669 6.662-1.054 10.476c-.397 3.935-2.238 7.582-5.167 10.235-2.929 2.652-6.738 4.121-10.687 4.122h-17.655z" fill="#ef7b4d"/><g opacity=".71"><path d="m56.1264 163.524c4.6227 0 8.3702-3.753 8.3702-8.382s-3.7475-8.382-8.3702-8.382-8.3702 3.753-8.3702 8.382 3.7475 8.382 8.3702 8.382z" fill="#a1bff1" opacity=".71"/><path d="m86.2501 163.524c4.6227 0 8.3702-3.753 8.3702-8.382 0-4.63-3.7475-8.382-8.3702-8.382s-8.3702 3.752-8.3702 8.382c0 4.629 3.7475 8.382 8.3702 8.382z" fill="#fff" opacity=".71"/><path d="m117.049 163.524c4.622 0 8.37-3.753 8.37-8.382 0-4.63-3.748-8.382-8.37-8.382-4.623 0-8.371 3.752-8.371 8.382 0 4.629 3.748 8.382 8.371 8.382z" fill="#a1bff1" opacity=".71"/><path d="m148.187 163.524c4.623 0 8.37-3.753 8.37-8.382 0-4.63-3.747-8.382-8.37-8.382s-8.37 3.752-8.37 8.382c0 4.629 3.747 8.382 8.37 8.382z" fill="#fff" opacity=".71"/></g><g opacity=".71"><path d="m51.8215 188.547c4.6227 0 8.3701-3.753 8.3701-8.382 0-4.63-3.7474-8.382-8.3701-8.382s-8.3702 3.752-8.3702 8.382c0 4.629 3.7475 8.382 8.3702 8.382z" fill="#fff" opacity=".71"/><path d="m81.9396 188.547c4.6227 0 8.3702-3.753 8.3702-8.382 0-4.63-3.7475-8.382-8.3702-8.382s-8.3701 3.752-8.3701 8.382c0 4.629 3.7474 8.382 8.3701 8.382z" fill="#a1bff1" opacity=".71"/><path d="m112.738 188.547c4.623 0 8.37-3.753 8.37-8.382 0-4.63-3.747-8.382-8.37-8.382s-8.37 3.752-8.37 8.382c0 4.629 3.747 8.382 8.37 8.382z" fill="#fff" opacity=".71"/><path d="m143.877 188.547c4.622 0 8.37-3.753 8.37-8.382 0-4.63-3.748-8.382-8.37-8.382-4.623 0-8.371 3.752-8.371 8.382 0 4.629 3.748 8.382 8.371 8.382z" fill="#a1bff1" opacity=".71"/></g><g opacity=".71"><path d="m45.9384 214.396c4.6227 0 8.3702-3.753 8.3702-8.382s-3.7475-8.382-8.3702-8.382-8.3702 3.753-8.3702 8.382 3.7475 8.382 8.3702 8.382z" fill="#a1bff1" opacity=".71"/><path d="m76.0564 214.395c4.6228 0 8.3702-3.753 8.3702-8.382s-3.7474-8.382-8.3702-8.382c-4.6227 0-8.3701 3.753-8.3701 8.382s3.7474 8.382 8.3701 8.382z" fill="#fff" opacity=".71"/><path d="m106.855 214.395c4.623 0 8.37-3.753 8.37-8.382s-3.747-8.382-8.37-8.382-8.3703 3.753-8.3703 8.382 3.7473 8.382 8.3703 8.382z" fill="#a1bff1" opacity=".71"/></g><path d="m168.268 193.321-.028.028-35.232 31.495v-25.565c0-1.579.626-3.094 1.741-4.211s2.627-1.746 4.204-1.747z" fill="url(#d)"/><path d="m168.24 193.349-.669 6.662-27.776 24.833h-6.787z" fill="#ef7b4d" opacity=".35"/><path d="m39.1074 225.101c15.639 0 28.3169-12.696 28.3169-28.357s-12.6779-28.357-28.3169-28.357-28.3169 12.696-28.3169 28.357 12.6779 28.357 28.3169 28.357z" fill="url(#e)" opacity=".36"/><path d="m28.3561 225.458c15.639 0 28.3169-12.696 28.3169-28.357s-12.6779-28.356-28.3169-28.356c-15.6391 0-28.3169765 12.695-28.3169765 28.356s12.6778765 28.357 28.3169765 28.357z" fill="url(#g)"/><path d="m29.5607 203.166c2.7287 0 4.9407-2.215 4.9407-4.948 0-2.732-2.212-4.947-4.9407-4.947s-4.9407 2.215-4.9407 4.947c0 2.733 2.212 4.948 4.9407 4.948z" fill="#2e419b" opacity=".85"/><path d="m30.3647 196.437.9779.979 13.0635-13.082-.9779-.979z" fill="#2e419b" opacity=".85"/><path d="m54.8384 197.732c-.0037 6.673-2.3938 13.124-6.7372 18.184-4.3434 5.061-10.3529 8.396-16.9401 9.403 4.4817-.446 8.7928-1.955 12.5752-4.404 3.7825-2.448 6.9272-5.764 9.1732-9.673 2.2459-3.91 3.5284-8.299 3.7408-12.804s-.6513-8.996-2.5195-13.1c-1.8681-4.104-4.6868-7.702-8.2221-10.496-3.5353-2.795-7.6851-4.704-12.105-5.57-4.4199-.867-8.9824-.665-13.3088.589-4.3263 1.253-8.2917 3.522-11.56692 6.618 4.05472-3.442 9.00752-5.651 14.27452-6.368 5.2671-.717 10.6289.089 15.4538 2.323 4.8248 2.233 8.9115 5.802 11.7786 10.284 2.867 4.482 4.3949 9.692 4.4035 15.014z" fill="url(#h)"/><path d="m13.5052 213.438 1.8375 1.84 13.4933-13.512-1.8375-1.841z" fill="#2e419b" opacity=".85"/><path d="m17.752 187.235-1.806 1.809 8.6433 8.655 1.806-1.808z" fill="#2e419b" opacity=".85"/><path d="m28.3616 202.005c2.7286 0 4.9407-2.215 4.9407-4.948 0-2.732-2.2121-4.948-4.9407-4.948-2.7287 0-4.9407 2.216-4.9407 4.948 0 2.733 2.212 4.948 4.9407 4.948z" fill="#fff"/><path d="m12.1275 212.057-.0316-.032 13.4933-13.512 1.8375 1.84-11.6873 11.704c-.479.479-1.1286.749-1.806.749s-1.327-.27-1.8059-.749z" fill="#fff"/><path d="m17.2717 187.715c.2371-.237.5187-.426.8285-.554.3099-.129.642-.195.9774-.195s.6675.066.9774.195c.3098.128.5914.317.8286.554l6.8373 6.847-1.8059 1.809z" fill="#fff"/><path d="m29.4462 195.513.9779.98 13.0635-13.082-.9779-.979z" fill="#fff"/><path d="m175.718 118.917v99.053c0 1.823-.723 3.571-2.011 4.86-1.287 1.29-3.033 2.014-4.854 2.014h-18.19c3.949-.001 7.758-1.47 10.687-4.123 2.929-2.652 4.77-6.299 5.167-10.234l1.723-17.138z" fill="url(#i)" opacity=".51"/></svg>

<svg width="192" height="226" viewBox="0 0 192 226" fill="none" xmlns="http://www.w3.org/2000/svg">
<circle opacity="0.2" cx="108.694" cy="59.0241" r="44.2639" fill="url(#paint0_linear)"/>
<path opacity="0.14" fill-rule="evenodd" clip-rule="evenodd" d="M108.694 114.282C139.212 114.282 163.952 89.542 163.952 59.0241C163.952 28.5062 139.212 3.7666 108.694 3.7666C78.1764 3.7666 53.4368 28.5062 53.4368 59.0241C53.4368 89.542 78.1764 114.282 108.694 114.282ZM108.694 103.288C133.141 103.288 152.958 83.4704 152.958 59.0241C152.958 34.5778 133.141 14.7602 108.694 14.7602C84.248 14.7602 64.4304 34.5778 64.4304 59.0241C64.4304 83.4704 84.248 103.288 108.694 103.288Z" fill="#5E6294"/>
<path d="M83.4005 82.2164C77.3456 79.5937 73.1096 73.5646 73.1096 66.5461C73.1096 59.9836 76.813 54.2861 82.244 51.4295C81.8674 36.4264 93.931 24.0181 108.984 24.0181C124.036 24.0181 136.1 36.4264 135.723 51.4295C141.154 54.2861 144.858 59.9836 144.858 66.5461C144.858 73.5646 140.622 79.5937 134.567 82.2164L133.578 108.476C133.861 115.273 135.911 115.837 143.621 117.957C144.365 118.162 145.162 118.381 146.015 118.621C139.664 120.073 135.674 120.273 133.163 119.515L132.707 131.64C131.688 143.101 131.79 143.127 139.526 145.14C140.578 145.414 141.771 145.724 143.121 146.105C126.465 149.913 126.248 142.368 126.052 135.546C126.013 134.183 125.974 132.849 125.806 131.64H125.185C125.148 132.099 125.112 132.545 125.076 132.978L125.076 132.989C124.299 142.53 124.032 145.805 125.53 147.249C126.313 148.004 127.577 148.259 129.503 148.647C131.516 149.052 134.252 149.603 137.914 151.024C118.274 153.758 118.289 147.52 118.314 136.898C118.318 135.246 118.322 133.487 118.253 131.64H117.663C116.753 152.115 117.811 152.375 124.775 154.083C126.668 154.547 128.996 155.119 131.839 156.231C111.824 158.455 111.023 152.767 109.789 144.005C109.571 142.453 109.339 140.805 108.984 139.086C108.629 140.805 108.397 142.453 108.178 144.005C106.944 152.767 106.143 158.455 86.1284 156.231C88.9715 155.119 91.2996 154.547 93.1917 154.083C100.157 152.375 101.214 152.115 100.304 131.64H99.7143C99.6449 133.487 99.6491 135.246 99.6531 136.898C99.6786 147.52 99.6936 153.758 80.053 151.024C83.7156 149.603 86.4513 149.052 88.4645 148.647C90.3899 148.259 91.6546 148.004 92.4374 147.249C93.9354 145.805 93.6687 142.53 92.8917 132.989C92.8561 132.553 92.8195 132.103 92.782 131.64H92.1611C91.9927 132.849 91.9544 134.183 91.9152 135.546C91.7191 142.368 91.5022 149.913 74.846 146.105C76.1964 145.724 77.3894 145.414 78.4412 145.14C86.1769 143.127 86.2792 143.101 85.2605 131.64L84.8042 119.515C82.293 120.273 78.3036 120.073 71.9524 118.621C72.8053 118.381 73.602 118.162 74.346 117.957C82.0564 115.837 84.1058 115.273 84.3887 108.476L83.4005 82.2164Z" fill="#EF7B4D"/>
<circle cx="89.3107" cy="66.8354" r="12.7295" fill="#FEFEFE"/>
<circle cx="89.0214" cy="64.8098" r="4.33959" fill="black"/>
<circle cx="126.921" cy="66.8354" r="12.7295" fill="#FEFEFE"/>
<circle cx="126.631" cy="64.8098" r="4.33959" fill="black"/>
<path d="M99.1472 90.5581C99.1472 90.5581 103.776 95.187 108.984 95.187C114.191 95.187 118.82 90.5581 118.82 90.5581V96.3442C118.82 101.777 114.416 106.181 108.984 106.181C103.551 106.181 99.1472 101.777 99.1472 96.3442V90.5581Z" fill="#FAFAFA"/>
<path d="M99.1472 95.1875C99.1472 95.1875 103.776 99.8164 108.984 99.8164C114.191 99.8164 118.82 95.1875 118.82 95.1875V96.3447C118.82 101.777 114.416 106.181 108.984 106.181C103.551 106.181 99.1472 101.777 99.1472 96.3447V95.1875Z" fill="#202124"/>
<path opacity="0.16" d="M71.942 86.7018C66.1881 79.0573 62.7613 69.5589 62.7189 59.2554C62.6505 42.6506 71.3888 28.0644 84.5443 19.9226" stroke="#5E6294" stroke-width="3.47168" stroke-linecap="round"/>
<circle opacity="0.45" cx="90.468" cy="15.9175" r="2.31445" fill="#5E6294"/>
<rect x="48.2292" y="46.0054" width="5.20751" height="26.6162" rx="2.31445" fill="#5E6294"/>
<rect x="163.952" y="46.0054" width="5.20751" height="26.6162" rx="2.31445" fill="#5E6294"/>
<path fill-rule="evenodd" clip-rule="evenodd" d="M108.694 117.175C140.81 117.175 166.845 91.1398 166.845 59.0241C166.845 26.9084 140.81 0.873535 108.694 0.873535C76.5786 0.873535 50.5437 26.9084 50.5437 59.0241C50.5437 91.1398 76.5786 117.175 108.694 117.175ZM108.694 114.282C139.212 114.282 163.952 89.542 163.952 59.0242C163.952 28.5063 139.212 3.76665 108.694 3.76665C78.1764 3.76665 53.4367 28.5063 53.4367 59.0242C53.4367 89.542 78.1764 114.282 108.694 114.282Z" fill="#5E6294" fill-opacity="0.2"/>
<path d="M102.877 37.0899C102.296 39.8113 99.9325 41.6131 97.5988 41.1145C95.2651 40.6158 93.7689 38.4373 94.3504 35.7159C94.9319 32.9945 98.4885 30.1035 100.822 30.6021C103.156 31.1008 103.459 34.3685 102.877 37.0899Z" fill="#F77F4F"/>
<path d="M191.181 224.844H145.438L154.266 118.917H175.919L191.181 224.844Z" fill="#5C75C9"/>
<path d="M175.718 118.916L168.468 190.914L168.223 193.349L167.554 200.011L166.5 210.487C166.103 214.422 164.262 218.069 161.333 220.721C158.404 223.374 154.595 224.843 150.646 224.844H23.7999L33.0009 133.262C33.3976 129.327 35.2397 125.679 38.17 123.026C41.1003 120.373 44.91 118.905 48.8602 118.905L175.718 118.916Z" fill="url(#paint1_linear)"/>
<path d="M48.8549 118.917H175.718L173.749 138.461H32.4826L33.0068 133.251C33.406 129.32 35.2481 125.678 38.176 123.03C41.104 120.381 44.9094 118.916 48.8549 118.917Z" fill="url(#paint2_linear)"/>
<path d="M168.24 193.349L167.571 200.011L166.517 210.487C166.12 214.422 164.279 218.069 161.35 220.722C158.421 223.374 154.612 224.843 150.663 224.844H133.008L168.24 193.349Z" fill="#EF7B4D"/>
<g opacity="0.71">
<path opacity="0.71" d="M56.1264 163.524C60.7491 163.524 64.4966 159.771 64.4966 155.142C64.4966 150.513 60.7491 146.76 56.1264 146.76C51.5037 146.76 47.7562 150.513 47.7562 155.142C47.7562 159.771 51.5037 163.524 56.1264 163.524Z" fill="#A1BFF1"/>
<path opacity="0.71" d="M86.2501 163.524C90.8728 163.524 94.6203 159.771 94.6203 155.142C94.6203 150.512 90.8728 146.76 86.2501 146.76C81.6274 146.76 77.8799 150.512 77.8799 155.142C77.8799 159.771 81.6274 163.524 86.2501 163.524Z" fill="white"/>
<path opacity="0.71" d="M117.049 163.524C121.671 163.524 125.419 159.771 125.419 155.142C125.419 150.512 121.671 146.76 117.049 146.76C112.426 146.76 108.678 150.512 108.678 155.142C108.678 159.771 112.426 163.524 117.049 163.524Z" fill="#A1BFF1"/>
<path opacity="0.71" d="M148.187 163.524C152.81 163.524 156.557 159.771 156.557 155.142C156.557 150.512 152.81 146.76 148.187 146.76C143.564 146.76 139.817 150.512 139.817 155.142C139.817 159.771 143.564 163.524 148.187 163.524Z" fill="white"/>
</g>
<g opacity="0.71">
<path opacity="0.71" d="M51.8215 188.547C56.4442 188.547 60.1916 184.794 60.1916 180.165C60.1916 175.535 56.4442 171.783 51.8215 171.783C47.1988 171.783 43.4513 175.535 43.4513 180.165C43.4513 184.794 47.1988 188.547 51.8215 188.547Z" fill="white"/>
<path opacity="0.71" d="M81.9396 188.547C86.5623 188.547 90.3098 184.794 90.3098 180.165C90.3098 175.535 86.5623 171.783 81.9396 171.783C77.3169 171.783 73.5695 175.535 73.5695 180.165C73.5695 184.794 77.3169 188.547 81.9396 188.547Z" fill="#A1BFF1"/>
<path opacity="0.71" d="M112.738 188.547C117.361 188.547 121.108 184.794 121.108 180.165C121.108 175.535 117.361 171.783 112.738 171.783C108.115 171.783 104.368 175.535 104.368 180.165C104.368 184.794 108.115 188.547 112.738 188.547Z" fill="white"/>
<path opacity="0.71" d="M143.877 188.547C148.499 188.547 152.247 184.794 152.247 180.165C152.247 175.535 148.499 171.783 143.877 171.783C139.254 171.783 135.506 175.535 135.506 180.165C135.506 184.794 139.254 188.547 143.877 188.547Z" fill="#A1BFF1"/>
</g>
<g opacity="0.71">
<path opacity="0.71" d="M45.9384 214.396C50.5611 214.396 54.3086 210.643 54.3086 206.014C54.3086 201.385 50.5611 197.632 45.9384 197.632C41.3157 197.632 37.5682 201.385 37.5682 206.014C37.5682 210.643 41.3157 214.396 45.9384 214.396Z" fill="#A1BFF1"/>
<path opacity="0.71" d="M76.0564 214.395C80.6792 214.395 84.4266 210.642 84.4266 206.013C84.4266 201.384 80.6792 197.631 76.0564 197.631C71.4337 197.631 67.6863 201.384 67.6863 206.013C67.6863 210.642 71.4337 214.395 76.0564 214.395Z" fill="white"/>
<path opacity="0.71" d="M106.855 214.395C111.478 214.395 115.225 210.642 115.225 206.013C115.225 201.384 111.478 197.631 106.855 197.631C102.232 197.631 98.4847 201.384 98.4847 206.013C98.4847 210.642 102.232 214.395 106.855 214.395Z" fill="#A1BFF1"/>
</g>
<path d="M168.268 193.321L168.24 193.349L133.008 224.844V199.279C133.008 197.7 133.634 196.185 134.749 195.068C135.864 193.951 137.376 193.322 138.953 193.321H168.268Z" fill="url(#paint3_linear)"/>
<path opacity="0.35" d="M168.24 193.349L167.571 200.011L139.795 224.844H133.008L168.24 193.349Z" fill="#EF7B4D"/>
<path opacity="0.36" d="M39.1074 225.101C54.7464 225.101 67.4243 212.405 67.4243 196.744C67.4243 181.083 54.7464 168.387 39.1074 168.387C23.4684 168.387 10.7905 181.083 10.7905 196.744C10.7905 212.405 23.4684 225.101 39.1074 225.101Z" fill="url(#paint4_linear)"/>
<path d="M28.3561 225.458C43.9951 225.458 56.673 212.762 56.673 197.101C56.673 181.44 43.9951 168.745 28.3561 168.745C12.717 168.745 0.0391235 181.44 0.0391235 197.101C0.0391235 212.762 12.717 225.458 28.3561 225.458Z" fill="url(#paint5_linear)"/>
<path opacity="0.85" d="M29.5607 203.166C32.2894 203.166 34.5014 200.951 34.5014 198.218C34.5014 195.486 32.2894 193.271 29.5607 193.271C26.832 193.271 24.62 195.486 24.62 198.218C24.62 200.951 26.832 203.166 29.5607 203.166Z" fill="#2E419B"/>
<path opacity="0.85" d="M30.3647 196.437L31.3426 197.416L44.4061 184.334L43.4282 183.355L30.3647 196.437Z" fill="#2E419B"/>
<path d="M54.8384 197.732C54.8347 204.405 52.4446 210.856 48.1012 215.916C43.7578 220.977 37.7483 224.312 31.1611 225.319C35.6428 224.873 39.9539 223.364 43.7363 220.915C47.5188 218.467 50.6635 215.151 52.9095 211.242C55.1554 207.332 56.4379 202.943 56.6503 198.438C56.8627 193.933 55.999 189.442 54.1308 185.338C52.2627 181.234 49.444 177.636 45.9087 174.842C42.3734 172.047 38.2236 170.138 33.8037 169.272C29.3838 168.405 24.8213 168.607 20.4949 169.861C16.1686 171.114 12.2032 173.383 8.92798 176.479C12.9827 173.037 17.9355 170.828 23.2025 170.111C28.4696 169.394 33.8314 170.2 38.6563 172.434C43.4811 174.667 47.5678 178.236 50.4349 182.718C53.3019 187.2 54.8298 192.41 54.8384 197.732Z" fill="url(#paint6_linear)"/>
<path opacity="0.85" d="M13.5052 213.438L15.3427 215.278L28.836 201.766L26.9985 199.925L13.5052 213.438Z" fill="#2E419B"/>
<path opacity="0.85" d="M17.752 187.235L15.946 189.044L24.5893 197.699L26.3953 195.891L17.752 187.235Z" fill="#2E419B"/>
<path d="M28.3616 202.005C31.0902 202.005 33.3023 199.79 33.3023 197.057C33.3023 194.325 31.0902 192.109 28.3616 192.109C25.6329 192.109 23.4209 194.325 23.4209 197.057C23.4209 199.79 25.6329 202.005 28.3616 202.005Z" fill="white"/>
<path d="M12.1275 212.057L12.0959 212.025L25.5892 198.513L27.4267 200.353L15.7394 212.057C15.2604 212.536 14.6108 212.806 13.9334 212.806C13.256 212.806 12.6064 212.536 12.1275 212.057Z" fill="white"/>
<path d="M17.2717 187.715C17.5088 187.478 17.7904 187.289 18.1002 187.161C18.4101 187.032 18.7422 186.966 19.0776 186.966C19.413 186.966 19.7451 187.032 20.055 187.161C20.3648 187.289 20.6464 187.478 20.8836 187.715L27.7209 194.562L25.915 196.371L17.2717 187.715Z" fill="white"/>
<path d="M29.4462 195.513L30.4241 196.493L43.4876 183.411L42.5097 182.432L29.4462 195.513Z" fill="white"/>
<path opacity="0.51" d="M175.718 118.917V217.97C175.718 219.793 174.995 221.541 173.707 222.83C172.42 224.12 170.674 224.844 168.853 224.844H150.663C154.612 224.843 158.421 223.374 161.35 220.721C164.279 218.069 166.12 214.422 166.517 210.487L168.24 193.349L175.718 118.917Z" fill="url(#paint7_linear)"/>
<defs>
<linearGradient id="paint0_linear" x1="108.694" y1="14.7603" x2="134.107" y2="102.087" gradientUnits="userSpaceOnUse">
<stop stop-color="#5E6294"/>
<stop offset="1" stop-color="#878BB2"/>
</linearGradient>
<linearGradient id="paint1_linear" x1="-32084" y1="21347.9" x2="41904.5" y2="21347.9" gradientUnits="userSpaceOnUse">
<stop stop-color="#D6E6FD"/>
<stop offset="1" stop-color="#D2E3FD"/>
</linearGradient>
<linearGradient id="paint2_linear" x1="-25204.1" y1="2524.3" x2="40569.5" y2="2524.3" gradientUnits="userSpaceOnUse">
<stop stop-color="#373282"/>
<stop offset="1" stop-color="#2E419B"/>
</linearGradient>
<linearGradient id="paint3_linear" x1="161.013" y1="188.139" x2="126.898" y2="215.46" gradientUnits="userSpaceOnUse">
<stop stop-color="#EF7B4D"/>
<stop offset="1" stop-color="#FF8F62"/>
</linearGradient>
<linearGradient id="paint4_linear" x1="39.1074" y1="226.441" x2="39.1074" y2="170.409" gradientUnits="userSpaceOnUse">
<stop stop-color="#5C75C9"/>
<stop offset="1" stop-color="#D2E3FD"/>
</linearGradient>
<linearGradient id="paint5_linear" x1="28.3561" y1="122.239" x2="28.3561" y2="284.042" gradientUnits="userSpaceOnUse">
<stop stop-color="#5C75C9"/>
<stop offset="1" stop-color="#2E419B"/>
</linearGradient>
<linearGradient id="paint6_linear" x1="7062.64" y1="8769.82" x2="7062.64" y2="17613.6" gradientUnits="userSpaceOnUse">
<stop stop-color="#5C75C9"/>
<stop offset="1" stop-color="#2E419B"/>
</linearGradient>
<linearGradient id="paint7_linear" x1="163.193" y1="229.579" x2="163.193" y2="149.473" gradientUnits="userSpaceOnUse">
<stop stop-color="#373282" stop-opacity="0"/>
<stop offset="1" stop-color="#2E419B"/>
</linearGradient>
</defs>
</svg>
